X:942
T:Reel 942
M:4/4
K:Gmaj
L:1/8
ge|dGBG AGFA|dGBG c2Bc|dGBG AFDF|defa g2:|de|g2bg agfa|gfde fdc2|gfge fgaf|bgaf g2ga|bagb agfa|gfeg fefa|b2bg aefd|egfa gedc|
